X:1
T:Neither Height, Nor Depth, Nor Breadth
T:Neither Height, Nor Depth, Nor Breadth
T:Alfred Henry Ackley
T:Helen Virginia Armacost, 1913
T:Public Domain Courtesy of the Cyber Hymnal™
T:Public Domain Courtesy of the Cyber Hymnal™
C:Alfred Henry Ackley
Z:Public Domain
Z:Courtesy of the Cyber Hymnal™
%%score 1 ( 2 3 )
L:1/8
Q:1/4=110
M:4/4
K:C
V:1 treble 
V:2 bass 
V:3 bass 
V:1
 [EG]2 | [EG]2 [CE]2 [CE]2 [Ec]2 | [Fc]2 [FA]2 [FA]2 [FA]2 | [FB]3 [FA] [FG]2 [DF]2 | %4
w: 1.~The|chords of love bind|me a- bove To|One who ne- ver|
w: 2.~The|price He gave, my|soul to save, Up-|on the cross of|
w: 3.~His|love com- plete, with|joys re- plete, Sup-|plies my ev- ery|
 [DF]2 [EG]4 [EG]2 | [EG]2 [CE]2 [CE]2 [Ec]2 | [Fc]2 [FA]2 [FA]2 [FA]2 | [^Fd]3 [Fc] [FB]2 [FA]2 | %8
w: chang- es; Nor|time, nor space can|e’er ef- face, His|bound- less love for|
w: an- guish; The|shame and woe, O|who can know, How|much He cared for|
w: long- ing; It|brings no pain, no|loss, but gain, The|love He gives to|
 [DG]6 ||"^Refrain" [FG][EG] | .[Ec]2 .[Fc]2 .[Gc]2 .[Ec]2 | [Fd][Fc][FB][FA] [FA][EG][EG][Ec] | %12
w: me.||||
w: me.|Nei- ther|height, nor depth, nor|breadth, shall sep- a- rate me From the|
w: me.||||
 [FB]3 [FA] [DG][B,D][^A,^C][B,D] | [CE]2 [FA]2 [EG]2 [FG][FG] | .[Ec]2 .[Fc]2 .[Gc]2 .[Ec]2 | %15
w: |||
w: love of Him who shed His|pre- cious blood; Nei- ther|height, nor depth, nor|
w: |||
 [Fd][Fc][FB][FA] [FA][EG][Gc][Gd] | [Ge]4 [Fd]4 | [Ec]6 |] %18
w: |||
w: breadth, shall sep- a- rate me From the|love of|God.|
w: |||
V:2
 [C,C]2 | [C,C]2 [C,G,]2 [C,G,]2 [C,_B,]2 | [F,A,]2 [F,C]2 [F,C]2 [F,D]2 | %3
 [G,D]3 [G,C] [G,B,]2 [G,B,]2 | [C,G,]2 [C,C]4 [B,,C]2 | [C,C]2 [C,G,]2 [C,G,]2 [C,_B,]2 | %6
 [F,A,]2 [F,C]2 [F,C]2 [F,C]2 | [D,C]3 [D,E] [D,D]2 [D,C]2 | [G,B,]6 || [G,B,][G,B,] | %10
 .[C,C]2 .[D,C]2 .[E,C]2 .[C,C]2 | [F,A,][F,A,][F,B,][F,C] [C,C][C,C][C,C][C,C] | %12
 [G,D]3 [G,C] [G,B,]G,G,G, | [C,G,]2 [C,C]2 [C,C]2 [G,B,][G,B,] | .[C,C]2 .[D,C]2 .[E,C]2 .[C,C]2 | %15
 [F,A,][F,A,][F,B,][F,C] [C,C][C,C][E,C][F,C] | [G,C]4 [G,B,]4 | [C,C]6 |] %18
V:3
 x2 | x8 | x8 | x8 | x8 | x8 | x8 | x8 | x6 || x2 | x8 | x8 | x5 G,G,G, | x8 | x8 | x8 | x8 | x6 |] %18

